assets/icons/icon_rupiah.svg

<svg fill="none" height="512" viewBox="0 0 512 512" width="512" xmlns="http://www.w3.org/2000/svg"><path clip-rule="evenodd" d="m160 20c-75.1107 0-136 60.8893-136 136v192c0 75.111 60.8893 136 136 136h192c75.111 0 136-60.889 136-136v-192c0-75.1107-60.889-136-136-136zm-120 136c0-66.2742 53.7258-120 120-120h192c66.274 0 120 53.7258 120 120v192c0 66.274-53.726 120-120 120h-192c-66.2742 0-120-53.726-120-120zm136.001-24c-8.837 0-16 7.163-16 16v83.89l-.001.143.001.081v115.886c0 4.418 3.581 8 8 8 4.418 0 8-3.582 8-8v-103.056l58.733 29.367c8.131 4.065 13.267 12.376 13.267 21.466v52.223c0 4.418 3.581 8 8 8 4.418 0 8-3.582 8-8v-52.223c0-15.151-8.56-29.001-22.112-35.777l-40-20h30.112c17.673 0 32-14.327 32-32v-44c0-17.673-14.327-32-32-32zm0 16v76h56c8.836 0 16-7.163 16-16v-44c0-8.837-7.164-16-16-16zm111.999 64c0-8.837 7.163-16 16-16h40c17.673 0 32 14.327 32 32v29.538c0 17.674-14.327 32-32 32h-40v58.462c0 4.418-3.582 8-8 8s-8-3.582-8-8zm16 61.538h40c8.836 0 16-7.163 16-16v-29.538c0-8.837-7.164-16-16-16h-40z" fill="#000" fill-rule="evenodd"/></svg>

<?xml version="1.0" encoding="UTF-8" standalone="no"?> <svg width="512" height="512" viewBox="0 0 512 512" fill="none" xmlns="http://www.w3.org/2000/svg">
<path fill-rule="evenodd" clip-rule="evenodd" d="M160 20C84.8893 20 24 80.8893 24 156V348C24 423.111 84.8893 484 160 484H352C427.111 484 488 423.111 488 348V156C488 80.8893 427.111 20 352 20H160ZM40 156C40 89.7258 93.7258 36 160 36H352C418.274 36 472 89.7258 472 156V348C472 414.274 418.274 468 352 468H160C93.7258 468 40 414.274 40 348V156ZM176.001 132C167.164 132 160.001 139.163 160.001 148V231.89L160 232.033L160.001 232.114V348C160.001 352.418 163.582 356 168.001 356C172.419 356 176.001 352.418 176.001 348V244.944L234.734 274.311C242.865 278.376 248.001 286.687 248.001 295.777V348C248.001 352.418 251.582 356 256.001 356C260.419 356 264.001 352.418 264.001 348V295.777C264.001 280.626 255.441 266.776 241.889 260L201.889 240H232.001C249.674 240 264.001 225.673 264.001 208V164C264.001 146.327 249.674 132 232.001 132H176.001ZM176.001 148V224H232.001C240.837 224 248.001 216.837 248.001 208V164C248.001 155.163 240.837 148 232.001 148H176.001ZM288 212C288 203.163 295.163 196 304 196H344C361.673 196 376 210.327 376 228V257.538C376 275.212 361.673 289.538 344 289.538H304V348C304 352.418 300.418 356 296 356C291.582 356 288 352.418 288 348V212ZM304 273.538H344C352.836 273.538 360 266.375 360 257.538V228C360 219.163 352.836 212 344 212H304V273.538Z" fill="black"/>
</svg>
